X:1
T:Sångarfanan
T:Sångarfanan
T:Frans Albert Frieberg
C:Frans Albert Frieberg
%%score [ 1 2 3 4 ]
L:1/8
Q:1/4=94
M:4/4
K:D
V:1 treble-8 nm="T1"
V:2 treble-8 nm="T2"
V:3 bass nm="B1"
V:4 bass nm="B2"
V:1
"^Tempo di marcia"!f! A2 A2 A2 A2 | f3 e e2 d2 | c7/2 d/ e3/2 d/ c3/2 d/ | e2 A2 z4 | %4
w: Sån- gar- fa- nan|å- ter hö- jes|högt mot him- lens blå- a|sa- lar;|
!f! f2 f2 f2 f2 | f3 f f2 e2 | d7/2 c/ B3/2 c/ d3/2 B/ | c2 F2 z4 |!mf! c3 c c (d/c/) B c | %9
w: gläd- je i hvart|ö- ga rö- jes,|sån- gens ton till hjär- tat|ta- lar.|Fram- åt brö- der _ på vår|
 d2 e2 f4 |"^cresc." ^d3 d d (e/d/) c d | e2 f2 g4 |!f! !>!g3 g g g g g | g2 f2 f2 e2 | %14
w: mun- tra stråt,|sån- ger, vin och _ gläd- je|föl- jas åt,|ut bland sko- gar, sjö och|berg och da- lar|
 e2 d2 d2 c2 | d3/2!f! f/ a4- a3/2 f/ | f2 e2 d2 c2 | d2 z3/2!ff! d/ d2 z2!fine! || %18
w: lju- de friskt vår|sång, hur- ra! _ ja|lju- de friskt vår|sång, hur- ra!|
[K:G]!p! d4 g3 f | f2 e2 d2 z2 |!f!!>(! e3/2 d/ c2!>)!!>(! d3/2 c/ B2!>)! | d3 B A2 z2 | %22
w: Fjär- ran på|grön- klädd kust|vi med lust pröf- va må|druf- vans must.|
!p! d4 g3 f | f2 e2 a3 g |!<(! f3/2 e/ d2!<)! z2 f2 |!>(! g6!>)! z2 |!p! d4 g3 f | f2 e2 d2 z2 | %28
w: Styr då med|gläd- tid håg tid-|åt vårt tåg, vårt|tåg!|Gråt ej du|fag- ra mö!|
!f! e3/2 d/ c2 d3/2 c/ B2 |!>(! d3 B A2!>)! z2 |!p! d4 g3 f | f2 e2 a2 z3/2 g/ | %32
w: Ö- gast eld, kin- dens ros|får ej dö,|snart i din|hul- da famn jag|
 f3/2 e/ d2 z2!pp! f2 | g6 z2!D.C.! |] %34
w: sö- ker hamn, min|hamn.|
V:2
!f! A2 A2 A2 A2 | A3 A A2 A2 | A7/2 A/ A3/2 A/ A3/2 A/ | c2 A2 z4 |!f! f2 f2 f2 f2 | d3 d c2 c2 | %6
w: Sån- gar- fa- nan|å- ter hö- jes|högt mot him- lens blå- a|sa- lar;|gläd- je i hvart|ö- ga rö- jes,|
 B7/2 F/ D3/2 F/ B3/2 B/ | ^A2 F2 z4 |!mf! =A2 A2 A2 A2 | A2 c2 A4 |"^cresc." B2 B2 B2 B2 | %11
w: sån- gens ton till hjär- tat|ta- lar.|Fram- åt på vår|mun- tra stråt,|sång och gläd- je|
 B2 ^d2 B4 |!f! !>!c3 c c c B A | A2 A2 B2 B2 | A2 A2 G2 G2 | F2 z3/2!f! d/ f2- f3/2 d/ | %16
w: föl- jas åt,|ut bland sko- gar, sjö och|berg och da- lar|lju- de friskt vår|sång, hur- ra! _ ja|
 d2 c2 A2 G2 | F2 z3/2!ff! A/ A2 z2 ||[K:G]!p! B4 d3 d | c2 c2 B2 z2 | %20
w: lju- de friskt vår|sång, hur- ra!|Fjär- ran på|grön- klädd kust|
!f!!>(! B3/2 B/ A2!>)!!>(! A3/2 A/ G2!>)! | B3 G F2 z2 |!p! B4 d3 d | c2 c2 c3 c | %24
w: vi med lust pröf- va må|druf- vans must.|Styr då med|gläd- tid håg tid-|
!<(! c3/2 c/ c2!<)! z2 c2 |!>(! B3 B B2!>)! z2 |!p! B4 d3 d | c2 c2 B2 z2 | %28
w: åt vårt tåg, vårt|gla- da tåg!|Gråt ej du|fag- ra mö!|
!f! B3/2 B/ A2 A3/2 A/ G2 |!>(! B3 G F2!>)! z2 |!p! B4 d3 d | c2 c2 c2 z3/2 c/ | %32
w: Ö- gast eld, kin- dens ros|får ej dö,|snart i din|hul- da famn jag|
 c3/2 c/ c2 z2!pp! c2 | B3 B B2 z2 |] %34
w: sö- ker hamn, min|lug- na hamn.|
V:3
!f! A,2 A,2 A,2 A,2 | A,3 G, G,2 F,2 | G,7/2 F,/ E,3/2 F,/ G,3/2 F,/ | E,2 A,2 z4 | %4
w: Sån- gar- fa- nan|å- ter hö- jes|högt mot him- lens blå- a|sa- lar;|
!f! F,2 F,2 F,2 F,2 | B,3 B, F,2 F,2 | F,7/2 F,/ F,3/2 F,/ F,3/2 F,/ | F,2 F,2 z4 | %8
w: gläd- je i hvart|ö- ga rö- jes,|sån- gens ton till hjär- tat|ta- lar.|
!mf! G,2 G,2 G,2 G,2 | F,2 G,2 F,4 |"^cresc." A,2 A,2 A,2 A,2 | G,2 A,2 G,4 | %12
w: Fram- åt på vår|mun- tra stråt,|sång och gläd- je|föl- jas åt,|
!f! !>!A,3 A, A, C, D, E, | D,2 D,2 G,2 G,2 | F,2 F,2 E,2 E,2 | D,2 z2 z3/2!f! A,/ D3/2 A,/ | %16
w: ut bland sko- gar, sjö och|berg och da- lar|lju- de friskt vår|sång, hur- ra! ja|
 A,2 G,2 F,2 E,2 | D,2 z3/2!ff! F,/ F,2 z2 ||[K:G]!p! G,4 G,3 G, | G,2 G,2 G,2 z2 | %20
w: lju- de friskt vår|sång, hur- ra!|Fjär- ran på|grön- klädd kust|
!f!!>(! ^G,3/2 G,/ A,2!>)!!>(! F,3/2 F,/ =G,2!>)! | G,2 D,2 D,2 z2 |!p! G,4 G,3 G, | %23
w: vi med lust pröf- va må|druf- vans must.|Styr då med|
 G,2 G,2 A,3 A, |!<(! A,3/2 G,/ F,2!<)! z2 A,2 |!>(! G,3 G, G,2!>)! z2 |!p! G,4 G,3 G, | %27
w: gläd- tid håg tid-|åt vårt tåg, vårt|gla- da tåg!|Gråt ej du|
 G,2 G,2 G,2 z2 |!f! ^G,3/2 G,/ A,2 F,3/2 F,/ =G,2 |!>(! G,2 D,2 D,2!>)! z2 |!p! G,4 G,3 G, | %31
w: fag- ra mö!|Ö- gast eld, kin- dens ros|får ej dö,|snart i din|
 G,2 G,2 A,2 z3/2 A,/ | A,3/2 G,/ F,2 z2!pp! A,2 | G,3 G, G,2 z2 |] %34
w: hul- da famn jag|sö- ker hamn, min|lug- na hamn.|
V:4
!f! A,2 A,2 A,2 A,2 | D,3 D, D,2 D,2 | E,7/2 D,/ C,3/2 D,/ E,3/2 D,/ | (A,,2 C,>E, A,2) G,2 | %4
w: Sån- gar- fa- nan|å- ter hö- jes|högt mot him- lens blå- a|sa- * * * lar;|
!f! F,2 F,2 F,2 F,2 | B,,3 B,, ^A,,2 A,,2 | B,,7/2 B,,/ B,,3/2 B,,/ B,,3/2 D,/ | F,2 F,,2 z4 | %8
w: gläd- je i hvart|ö- ga rö- jes,|sån- gens ton till hjär- tat|ta- lar.|
!mf! E,2 A,,2 E,2 A,,2 | D,2 A,,2 D,4 |"^cresc." F,2 B,,2 F,2 B,,2 | E,2 B,,2 E,4 | %12
w: Fram- åt på vår|mun- tra stråt,|sång och gläd- je|föl- jas åt,|
!f! !>!E,3 E, E, A,, B,, C, | D,2 D,2 G,,2 G,,2 | A,,2 A,,2 A,,2 A,,2 | %15
w: ut bland sko- gar, sjö och|berg och da- lar|lju- de friskt vår|
 D,2 z2 z3/2!f! A,/ D3/2 A,/ | A,2 A,,2 A,,2 A,,2 | D,2 z3/2!ff! D,/ D,2 z2 || %18
w: sång, hur- ra! ja|lju- de friskt vår|sång, hur- ra!|
[K:G]!p! G,,4 B,,3 B,, | C,2 C,2 G,2 z2 |!f!!>(! E,3/2 E,/ A,2!>)!!>(! D,3/2 D,/ =G,2!>)! | %21
w: Fjär- ran på|grön- klädd kust|vi med lust pröf- va må|
 G,,2 B,,2 D,2 z2 |!p! G,,4 B,,3 B,, | C,2 C,2 A,,3 A,, |!<(! D,3/2 D,/ D,2!<)! z2 D,2 | %25
w: druf- vans must.|Styr då med|gläd- tid håg tid-|åt vårt tåg, vårt|
!>(! G,3 G,, G,,2!>)! z2 |!p! G,,4 B,,3 B,, | C,2 C,2 G,,2 z2 |!f! E,3/2 E,/ A,,2 D,3/2 D,/ G,,2 | %29
w: gla- da tåg!|Gråt ej du|fag- ra mö!|Ö- gast eld, kin- dens ros|
!>(! G,,2 B,,2 D,2!>)! z2 |!p! G,,4 B,,3 B,, | C,2 C,2 A,,2 z3/2 A,,/ | D,3/2 D,/ D,2 z2!pp! D,2 | %33
w: får ej dö,|snart i din|hul- da famn jag|sö- ker hamn, min|
 G,3 G,, G,,2 z2 |] %34
w: lug- na hamn.|

